!!!COM: Bach, Johann Sebastian
!!!CDT: 1685/3//-1750/7/28/
!!!OTL@@DE: Erstanden ist der heil'ge Christ
!!!AGN: 4-Part Chorale
!!!SCT: BH 176
!!!SCT: BWV 306
**harm	**root	**kern	**kern	**kern	**kern
!	!	!bass	!tenor	!alto	!soprno
*	*Iorgan	*Iorgan	*Iorgan	*Iorgan	*Iorgan
*M3/4	*M3/4	*M3/4	*M3/4	*M3/4	*M3/4
*MM60	*MM60	*MM60	*MM60	*MM60	*MM60
*k[f#]	*k[f#]	*k[f#]	*k[f#]	*k[f#]	*k[f#]
*G:	*G:	*G:	*G:	*G:	*G:
I	4FF	4GG	4B	4d	4g
=1	=1	=1	=1	=1	=1
I	4.FF	4.G	8B	4d	4.g
.	.	.	8c	.	.
.	.	.	8B	8e	.
vii	8EE	8F#	8A	8f#	8a
vi	4DD	4E	4G	[4g	8b
.	.	.	.	.	8cc
=2	=2	=2	=2	=2	=2
V	2CC	4.D	2A	4g]	2dd
.	.	.	.	8f#	.
.	.	8E	.	8g	.
Vb	4CC	8F#	4d	[4a	4a
.	.	8D	.	.	.
=3	=3	=3	=3	=3	=3
I	2FF	4.G	2d	8a]	2b
.	.	.	.	8f#	.
.	.	.	.	[2g	.
.	.	8F#	.	.	.
viib/V	4BB	4E	4e	.	4cc#
=4	=4	=4	=4	=4	=4
V;	2CC;	2D;	2A;	4g]	2dd;
.	.	.	.	4f#;	.
V7b	4CC	4F#	4d	[4a	4ccy
=5	=5	=5	=5	=5	=5
I	4FF	4.G	8d	4a]	4.b
.	.	.	8B	.	.
vib	4DD	.	2e	2g	.
.	.	8F#	.	.	8a
vi	4DD	4E	.	.	8b
.	.	.	.	.	8cc
=6	=6	=6	=6	=6	=6
Vb	4CC	4.F#	8d	8a	2dd
.	.	.	8e	8g	.
Vb	8CC	.	4f#	8a	.
vii7/ii	8FF#	8G#	.	[8b	.
ii	4GG	4A	4e	8b]	4cc
.	.	.	.	[8a	.
=7	=7	=7	=7	=7	=7
vi	4DD	4.E	4e	8a]	2b
.	.	.	.	16g	.
.	.	.	.	16f#	.
vi	4DD	.	4B	[4g	.
.	.	8D	.	.	.
v7c/III	4EE	4C	4E	8g]	4a
.	.	.	.	16f#	.
.	.	.	.	16e	.
!!linebreak: 2
=8	=8	=8	=8	=8	=8
III;	2AA;	2BB;	2F#;	2d#;	2b;
vi	4DD	4E	4G	4e	4b
=9	=9	=9	=9	=9	=9
iii	4AA	8B	4B	4.f#	2dd
.	.	8BB	.	.	.
iii	4AA	8B	[2d	.	.
.	.	8A	.	8g	.
V7b	4CC	8G	.	[4a	4cc
.	.	8F#	.	.	.
=10	=10	=10	=10	=10	=10
I	4FF	8G	8d]	4a]	2b
.	.	8GG	8B	.	.
vib	4DD	8G	8e	4g	.
.	.	8F#	8d	.	.
viioD7/vi	4CC#	8E	4c	[4f#	4a
.	.	8D#	.	.	.
=11	=11	=11	=11	=11	=11
vi	4DD	4E	8B	4f#]	2g
.	.	.	8G	.	.
IV	4BB-	4C	8c	4e	.
.	.	.	8B	.	.
V	4CC	4D	4A	8d	4f#
.	.	.	.	8c	.
=12	=12	=12	=12	=12	=12
vi;	2DD;	2E;	2G;	2B;	2g;
vi	4DD	8E	4B	4e	4g
.	.	8D	.	.	.
=13	=13	=13	=13	=13	=13
iib	4GG	4.C	4A	4e	8a
.	.	.	.	.	8g
V7d	8CC	.	4d	8f#	8a
Ib	8FF	8BB	.	8g	8b
!!!ONB1: in beat 3 of measure 13, the tenor pitch is 'd' in
!!!ONB2: Breitkof & Haertel editions, but is 'B-' in the
!!!ONB3: Bach Compendium index incipit.
ii	4GG	4AA	8c	8e	4cc
.	.	.	8A	8f#	.
=14	=14	=14	=14	=14	=14
I	4FF	8GG	8B	2g	2b
.	.	8AA	8c	.	.
Ib	4FF	8BB	[4d	.	.
.	.	8C	.	.	.
V	4CC	4D	8d]	[4f#	4a
.	.	.	8c	.	.
=15	=15	=15	=15	=15	=15
vi	4DD	8E	4B	4f#]	2g
.	.	8D	.	.	.
IV	4BB-	4C	8c	4e	.
.	.	.	8B	.	.
V7	4CC	4D	8A	4d	4f#
.	.	.	8c	.	.
=16	=16	=16	=16	=16	=16
I;	2FF;	2GG;	2B;	2d;	2g;
==	==	==	==	==	==
*-	*-	*-	*-	*-	*-
!!chor2scor: -l 2 -s 0.6 -o %b.pmx
!!!YEC: Copyright 1994, David Huron
!!!YEC: Changes/Additions 2001 by Craig Stuart Sapp
!!!YEN: United States of America
!!!SMA: 371 Bach Chorales, edited by Ludwig Erk, C.F. Peters
!!!PDT: 1850, 1865
!!!ONB: Harmony and Root analysis done manually
